svgs/asana.svg

<?xml version="1.0" encoding="UTF-8"?>
<svg width="192px" height="192px" viewBox="0 0 192 192" version="1.1" xmlns="http://www.w3.org/2000/svg">
    <g stroke="none" stroke-width="1" fill="none" fill-rule="evenodd">
        <path d="M141,106 C149.008248,106 156.258245,109.245891 161.506177,114.493879 C166.754142,119.741901 170,126.992026 170,135.000377 C170,143.008402 166.754109,150.25834 161.506139,155.506252 C156.258205,160.75413 149.008226,164 141,164 C132.991774,164 125.741795,160.75413 120.493861,155.506252 C115.245891,150.25834 112,143.008402 112,135.000377 C112,126.992026 115.245858,119.741901 120.493823,114.493879 C125.741755,109.245891 132.991752,106 141,106 Z M50.9992092,106 C59.0077351,106 66.2582053,109.245567 71.5064225,114.493496 C76.7542202,119.741006 80,126.990532 80,134.99887 C80,143.007266 76.7539248,150.257538 71.5057937,155.50572 C66.2576653,160.7539 59.0074725,164 50.9992092,164 C42.9913999,164 35.7416456,160.753928 30.4938331,155.505827 C25.2459134,150.25762 22,143.007302 22,134.99887 C22,126.990496 25.245618,119.740925 30.4932043,114.493389 C35.7411056,109.245539 42.9911373,106 50.9992092,106 Z M95.0006402,28 C103.008394,28 110.258047,31.2460517 115.505866,36.4936735 C120.753887,41.7414963 124,48.9910971 124,56.9980417 C124,65.0066569 120.754053,72.2572326 115.506041,77.5056336 C110.258238,82.753827 103.008501,86 95.0006402,86 C86.9921802,86 79.7421354,82.7539044 74.4941625,77.5057339 C69.2459595,72.2573333 66,65.0067108 66,56.9980417 C66,48.9910432 69.2461256,41.7413957 74.4943376,36.4935732 C79.7423261,31.2459743 86.9922865,28 95.0006402,28 L95.0006402,28 Z" id="Shape" stroke="#000000" stroke-width="12" />
    </g>
</svg>

<svg width="192" height="192" viewBox="0 0 192 192" xmlns="http://www.w3.org/2000/svg"><path d="M141 106c8.008 0 15.258 3.246 20.506 8.494C166.754 119.742 170 126.992 170 135c0 8.008-3.246 15.258-8.494 20.506C156.258 160.754 149.008 164 141 164c-8.008 0-15.258-3.246-20.506-8.494C115.246 150.258 112 143.008 112 135c0-8.008 3.246-15.258 8.494-20.506C125.742 109.246 132.992 106 141 106Zm-90 0c8.008 0 15.258 3.246 20.506 8.493C76.754 119.741 80 126.991 80 135c0 8.008-3.246 15.259-8.494 20.507C66.258 160.754 59.007 164 50.999 164c-8.008 0-15.257-3.246-20.505-8.494C25.246 150.258 22 143.007 22 134.999c0-8.009 3.246-15.258 8.493-20.506C35.741 109.246 42.991 106 51 106Zm44-78c8.008 0 15.258 3.246 20.506 8.494C120.754 41.74 124 48.99 124 56.998c0 8.009-3.246 15.26-8.494 20.508C110.258 82.754 103.009 86 95.001 86c-8.009 0-15.259-3.246-20.507-8.494C69.246 72.257 66 65.006 66 56.998c0-8.007 3.246-15.257 8.494-20.504C79.742 31.246 86.992 28 95.001 28Z" stroke="#000" stroke-width="12" fill="none" fill-rule="evenodd"/></svg>
